X:257
T:Parson in the Suds,The. RH.257
T:Devil in a Bush,aka. RH.257
R:reel
S:Rev.R.Harrison’s MS,c1815,Cumbria
N:cf. A music of May Day, aka Parson in the Suds, in
N:Hard Core English, by Barry Callghan. PJH.
O:England
A:Temple Sowerby,Cumbria
Z:vmp.Simon Wilson. Review PJH, 2008.
M:2/4
L:1/8
Q:1/4=150
K:G
f|g2 dc|B2 AG|FG AB|cA Af|\
g/f/e/g/ gd|B2 AG|FG AB|BG G:|!
|:B|DG BG|AG BG|DG BG|cA AB|\
cd ef|gd cB|cA dc|BG G:|

